X: 1
T:John Hardy
T:Vassar Clements fiddle break on Tony Rice's "Cold on the Shoulder" album
T:Transcribed by GJB
Z: posted by Gil Benson 3/99
C:Trad.
M:2/4
O:I
R:R
K:G
"one"z4 "two"z4 | "three"z2E=F ^FGAB | [c4e] - [c2e]A2 |\
{^g}a4 g4 | "fall-off"d4 - d2{^A}B2 | G4 - G2EG |
"slide"([ce][Be][c2e] [c2e])A2 | a4 g4 | [d4g] - [d3g][eg] |\
[d4g] - [d2g]gf | aged cA((3^AB^A) | AG3 A^ABA |
((3^ABA)AG EFGE | =FEDC B,A,G,2 | "fall-off"[^D4^A] - [^C4^G] |\
A,B,C2 DEFG | ABce c4 | cecA cBAG |
AGFE DEFG | "slide"{=f}f2dc BGED | G4 - G"fall-off"A3 - | A2A,2 F4 ||
